X: 846
T: Father O'Carrol
N:"Collected by F.O'Neill"
B:O'Neill's 846
Z:Transcribed by Dan G. Petersen, dangp@post6.tele.dk
M:6/8
L:1/8
K:G
(B/c/)|ded edB|GAG {A}GED|DEG GAB|BAA A2(B/c/)|
dge dBA|GAG {A}GED|DEG ABc|BGG G2:|
c|BAG Bcd|(e<g)e dBG|BAG GFG|BAA A2c|
BGG dGG|(e<g)e dBG|DEG ABc|BGG G2:|


